symbols/web/local_convenience_store/materialsymbolsrounded/local_convenience_store_wght200grad200_48px.svg

<svg xmlns="http://www.w3.org/2000/svg" height="48" width="48"><path d="M16.8 36.05h3.95q.35 0 .625-.225t.275-.575q0-.3-.3-.575-.3-.275-.6-.275h-3.1v-2.45h3.1q.35 0 .625-.25t.275-.65V27.1q0-.35-.275-.6t-.625-.25H16.8q-.4 0-.65.25t-.25.6q0 .25.25.55.25.3.6.3h3.15v2.3h-3.1q-.4 0-.65.25t-.25.6v4.1q0 .35.25.6t.65.25Zm14.5 0q.2 0 .5-.25t.3-.55V27.1q0-.3-.25-.575-.25-.275-.55-.275-.35 0-.625.275t-.275.575v3.2h-2.35v-3.2q0-.3-.25-.575-.25-.275-.55-.275-.35 0-.625.275t-.275.575v4q0 .4.25.65t.65.25h3.15v3.25q0 .3.25.55.25.25.65.25ZM9.85 41.5q-1.4 0-2.4-1.025t-1-2.375V21.9q-1.5-1.1-1.95-2.75-.45-1.65.1-3.35l2.1-6.55q.45-1.35 1.275-2.025Q8.8 6.55 10.2 6.55h27.4q1.3 0 2.275.675.975.675 1.375 1.925l2.15 6.65q.55 1.7.1 3.45-.45 1.75-2 2.75v16.1q0 1.35-1.025 2.375T38.1 41.5ZM28.5 20.95q1.75 0 2.775-.975T32.2 17.8l-1.4-9.05h-5.7v8.55q0 1.45.975 2.55.975 1.1 2.425 1.1Zm-9.25 0q1.5 0 2.6-1.075t1.1-2.575V8.75h-5.8l-1.4 9.15q-.15 1.15.8 2.1.95.95 2.7.95Zm-9.1 0q1.25 0 2.225-.95.975-.95 1.225-2.25l1.3-9h-4.5q-.65 0-1.05.275T8.8 9.9l-2 6.4q-.65 1.8.375 3.225t2.975 1.425Zm27.65 0q1.8 0 2.875-1.325t.475-3.325l-1.9-6.5q-.15-.55-.575-.8-.425-.25-1.075-.25h-4.5l1.25 9q.25 1.3 1.15 2.25.9.95 2.3.95ZM9.85 39.3H38.1q.5 0 .85-.35t.35-.85V22.95q-.2.05-.65.1t-.9.05q-1.3 0-2.375-.55t-2.075-1.7q-.8 1-1.975 1.625t-2.775.625q-1.35 0-2.45-.525T24 20.95q-1 1.05-2.2 1.6-1.2.55-2.4.55-1.45 0-2.65-.5t-2.05-1.75q-1.45 1.35-2.575 1.8-1.125.45-1.925.45-.55 0-.925-.05t-.625-.1V38.1q0 .5.35.85t.85.35Zm28.25 0H9.85 38.1Z"/></svg>

<svg xmlns="http://www.w3.org/2000/svg" height="48" width="48"><path d="M16.8 36.05H20.75Q21.1 36.05 21.375 35.825Q21.65 35.6 21.65 35.25Q21.65 34.95 21.35 34.675Q21.05 34.4 20.75 34.4H17.65V31.95H20.75Q21.1 31.95 21.375 31.7Q21.65 31.45 21.65 31.05V27.1Q21.65 26.75 21.375 26.5Q21.1 26.25 20.75 26.25H16.8Q16.4 26.25 16.15 26.5Q15.9 26.75 15.9 27.1Q15.9 27.35 16.15 27.65Q16.4 27.95 16.75 27.95H19.9V30.25H16.8Q16.4 30.25 16.15 30.5Q15.9 30.75 15.9 31.1V35.2Q15.9 35.55 16.15 35.8Q16.4 36.05 16.8 36.05ZM31.3 36.05Q31.5 36.05 31.8 35.8Q32.1 35.55 32.1 35.25V27.1Q32.1 26.8 31.85 26.525Q31.6 26.25 31.3 26.25Q30.95 26.25 30.675 26.525Q30.4 26.8 30.4 27.1V30.3H28.05V27.1Q28.05 26.8 27.8 26.525Q27.55 26.25 27.25 26.25Q26.9 26.25 26.625 26.525Q26.35 26.8 26.35 27.1V31.1Q26.35 31.5 26.6 31.75Q26.85 32 27.25 32H30.4V35.25Q30.4 35.55 30.65 35.8Q30.9 36.05 31.3 36.05ZM9.85 41.5Q8.45 41.5 7.45 40.475Q6.45 39.45 6.45 38.1V21.9Q4.95 20.8 4.5 19.15Q4.05 17.5 4.6 15.8L6.7 9.25Q7.15 7.9 7.975 7.225Q8.8 6.55 10.2 6.55H37.6Q38.9 6.55 39.875 7.225Q40.85 7.9 41.25 9.15L43.4 15.8Q43.95 17.5 43.5 19.25Q43.05 21 41.5 22V38.1Q41.5 39.45 40.475 40.475Q39.45 41.5 38.1 41.5ZM28.5 20.95Q30.25 20.95 31.275 19.975Q32.3 19 32.2 17.8L30.8 8.75H25.1V17.3Q25.1 18.75 26.075 19.85Q27.05 20.95 28.5 20.95ZM19.25 20.95Q20.75 20.95 21.85 19.875Q22.95 18.8 22.95 17.3V8.75H17.15L15.75 17.9Q15.6 19.05 16.55 20Q17.5 20.95 19.25 20.95ZM10.15 20.95Q11.4 20.95 12.375 20Q13.35 19.05 13.6 17.75L14.9 8.75H10.4Q9.75 8.75 9.35 9.025Q8.95 9.3 8.8 9.9L6.8 16.3Q6.15 18.1 7.175 19.525Q8.2 20.95 10.15 20.95ZM37.8 20.95Q39.6 20.95 40.675 19.625Q41.75 18.3 41.15 16.3L39.25 9.8Q39.1 9.25 38.675 9Q38.25 8.75 37.6 8.75H33.1L34.35 17.75Q34.6 19.05 35.5 20Q36.4 20.95 37.8 20.95ZM9.85 39.3H38.1Q38.6 39.3 38.95 38.95Q39.3 38.6 39.3 38.1V22.95Q39.1 23 38.65 23.05Q38.2 23.1 37.75 23.1Q36.45 23.1 35.375 22.55Q34.3 22 33.3 20.85Q32.5 21.85 31.325 22.475Q30.15 23.1 28.55 23.1Q27.2 23.1 26.1 22.575Q25 22.05 24 20.95Q23 22 21.8 22.55Q20.6 23.1 19.4 23.1Q17.95 23.1 16.75 22.6Q15.55 22.1 14.7 20.85Q13.25 22.2 12.125 22.65Q11 23.1 10.2 23.1Q9.65 23.1 9.275 23.05Q8.9 23 8.65 22.95V38.1Q8.65 38.6 9 38.95Q9.35 39.3 9.85 39.3ZM38.1 39.3H9.85Q9.85 39.3 9.85 39.3Q9.85 39.3 9.85 39.3Q9.8 39.3 9.9 39.3Q10 39.3 10.2 39.3Q10.5 39.3 12.4 39.3Q14.3 39.3 14.7 39.3Q14.8 39.3 15.475 39.3Q16.15 39.3 16.95 39.3Q17.75 39.3 18.475 39.3Q19.2 39.3 19.4 39.3Q19.55 39.3 20.25 39.3Q20.95 39.3 21.725 39.3Q22.5 39.3 23.175 39.3Q23.85 39.3 24 39.3Q24.25 39.3 26.2 39.3Q28.15 39.3 28.55 39.3Q28.7 39.3 29.425 39.3Q30.15 39.3 30.975 39.3Q31.8 39.3 32.475 39.3Q33.15 39.3 33.3 39.3Q33.6 39.3 35.525 39.3Q37.45 39.3 37.75 39.3Q37.85 39.3 38.025 39.3Q38.2 39.3 38.1 39.3Q38.1 39.3 38.1 39.3Q38.1 39.3 38.1 39.3Z"/></svg>
